packages/icons/svgs/duotone/Source=drop.svg

<svg width="24" height="24" viewBox="0 0 24 24" fill="none" xmlns="http://www.w3.org/2000/svg">
<path fill-rule="evenodd" clip-rule="evenodd" d="M12.7115 1.2973L12 2L11.2885 1.2973C11.4764 1.10707 11.7326 1 12 1C12.2674 1 12.5236 1.10707 12.7115 1.2973ZM12 3.45432C11.8498 3.61696 11.6799 3.80312 11.4943 4.01C10.7567 4.83215 9.77554 5.97602 8.79682 7.26672C7.81545 8.5609 6.852 9.98248 6.13802 11.3614C5.41279 12.762 5 14.0152 5 15C5 19.452 8.55148 22 12 22C15.4485 22 19 19.452 19 15C19 14.0152 18.5872 12.762 17.862 11.3614C17.148 9.98248 16.1845 8.5609 15.2032 7.26672C14.2245 5.97602 13.2433 4.83215 12.5057 4.01C12.3201 3.80312 12.1502 3.61696 12 3.45432ZM12 2C11.2885 1.2973 11.2887 1.29713 11.2885 1.2973L11.281 1.30489L11.2622 1.32415C11.2459 1.34081 11.2222 1.36507 11.1917 1.3966C11.1307 1.45964 11.0421 1.55173 10.9301 1.67011C10.706 1.90681 10.3874 2.24896 10.0057 2.67438C9.2433 3.5241 8.22446 4.71148 7.20318 6.05828C6.18455 7.4016 5.148 8.92377 4.36198 10.4417C3.58721 11.938 3 13.5348 3 15C3 20.748 7.64852 24 12 24C16.3515 24 21 20.748 21 15C21 13.5348 20.4128 11.938 19.638 10.4417C18.852 8.92377 17.8155 7.4016 16.7968 6.05828C15.7755 4.71148 14.7567 3.5241 13.9943 2.67438C13.6126 2.24896 13.294 1.90681 13.0699 1.67011C12.9579 1.55173 12.8693 1.45964 12.8083 1.3966C12.7778 1.36507 12.7541 1.34081 12.7378 1.32415L12.719 1.30489L12.7123 1.29809C12.7121 1.29792 12.7115 1.2973 12 2Z" fill="black" style="fill:black;fill-opacity:1;"/>
<path opacity="0.5" fill-rule="evenodd" clip-rule="evenodd" d="M9 14C9.55228 14 10 14.4477 10 15C10 15.8359 10.358 16.2931 10.7692 16.5778C11.2333 16.8991 11.7794 17 12 17C12.5523 17 13 17.4477 13 18C13 18.5523 12.5523 19 12 19C11.4206 19 10.4667 18.8009 9.63079 18.2222C8.74198 17.6069 8 16.5641 8 15C8 14.4477 8.44772 14 9 14Z" fill="black" style="fill:black;fill-opacity:1;"/>
</svg>

<svg xmlns="http://www.w3.org/2000/svg" width="24" height="24" viewBox="0 0 24 24"><path fill-rule="evenodd" d="M12.712 1.297 12 2l-.711-.703a1 1 0 0 1 1.422 0M12 3.454q-.226.246-.506.556a52 52 0 0 0-2.697 3.257C7.815 8.56 6.852 9.982 6.138 11.36 5.413 12.762 5 14.015 5 15c0 4.452 3.551 7 7 7s7-2.548 7-7c0-.985-.413-2.238-1.138-3.639-.714-1.379-1.677-2.8-2.659-4.094A52 52 0 0 0 12 3.454M12 2l-.711-.703-.008.008-.019.02a17 17 0 0 0-.332.345 54 54 0 0 0-3.727 4.388c-1.018 1.344-2.055 2.866-2.841 4.384C3.587 11.938 3 13.535 3 15c0 5.748 4.649 9 9 9 4.352 0 9-3.252 9-9 0-1.465-.587-3.062-1.362-4.558-.786-1.518-1.823-3.04-2.841-4.384a54 54 0 0 0-4.06-4.734l-.018-.02-.007-.006z" clip-rule="evenodd"/><path fill-rule="evenodd" d="M9 14a1 1 0 0 1 1 1c0 .836.358 1.293.77 1.578.463.321 1.01.422 1.23.422a1 1 0 1 1 0 2c-.58 0-1.533-.2-2.37-.778C8.743 17.607 8 16.564 8 15a1 1 0 0 1 1-1" clip-rule="evenodd" opacity=".5"/></svg>
